src/images/single-assets/KNOX.svg

<svg xmlns="http://www.w3.org/2000/svg" width="715" height="715" fill="none"><circle cx="357.464" cy="357.464" r="357.464" fill="#CCD7C0"/><path fill="#20412F" d="M234.396 504.798V210.129H198.46v294.669zm241.754 0L346.729 342.074l-16.838 13.624 118.615 149.1zm59.307 28.509H434.685L307.525 373.61l-44.732 36.077v123.62h-92.731V181.621h92.731v191.232l238.236-191.232h45.486l-177.42 142.541 83.181 104.572z"/><circle cx="357.464" cy="357.464" r="357.464" fill="#CCD7C0"/><path fill="#20412F" d="M234.396 504.798V210.129H198.46v294.669zm241.754 0L346.729 342.074l-16.838 13.624 118.615 149.1zm59.307 28.509H434.685L307.525 373.61l-44.732 36.077v123.62h-92.731V181.621h92.731v191.232l238.236-191.232h45.486l-177.42 142.541 83.181 104.572z"/></svg>

<svg width="715" height="715" viewBox="0 0 715 715" fill="none" xmlns="http://www.w3.org/2000/svg">
<circle cx="357.464" cy="357.464" r="357.464" fill="#CCD7C0"/>
<path d="M234.396 504.798V210.129H198.46V504.798H234.396ZM476.15 504.798L346.729 342.074L329.891 355.698L448.506 504.798H476.15ZM535.457 533.307H434.685L307.525 373.61L262.793 409.687V533.307H170.062V181.621H262.793V372.853L501.029 181.621H546.515L369.095 324.162L452.276 428.734L535.457 533.307Z" fill="#20412F"/>
<circle cx="357.464" cy="357.464" r="357.464" fill="#CCD7C0"/>
<path d="M234.396 504.798V210.129H198.46V504.798H234.396ZM476.15 504.798L346.729 342.074L329.891 355.698L448.506 504.798H476.15ZM535.457 533.307H434.685L307.525 373.61L262.793 409.687V533.307H170.062V181.621H262.793V372.853L501.029 181.621H546.515L369.095 324.162L452.276 428.734L535.457 533.307Z" fill="#20412F"/>
</svg>
